communes/5421.svg

<?xml version="1.0" encoding="UTF-8" standalone="no"?>
<!-- Created with Inkscape (http://www.inkscape.org/) -->
<svg
   xmlns:dc="http://purl.org/dc/elements/1.1/"
   xmlns:cc="http://creativecommons.org/ns#"
   xmlns:rdf="http://www.w3.org/1999/02/22-rdf-syntax-ns#"
   xmlns:svg="http://www.w3.org/2000/svg"
   xmlns="http://www.w3.org/2000/svg"
   xmlns:xlink="http://www.w3.org/1999/xlink"
   xmlns:sodipodi="http://sodipodi.sourceforge.net/DTD/sodipodi-0.dtd"
   xmlns:inkscape="http://www.inkscape.org/namespaces/inkscape"
   width="500"
   height="627.35999"
   id="svg2"
   sodipodi:version="0.32"
   inkscape:version="0.46"
   version="1.0"
   sodipodi:docname="Wappen Apples.svg"
   inkscape:output_extension="org.inkscape.output.svg.inkscape">
  <defs
     id="defs4">
    <inkscape:perspective
       sodipodi:type="inkscape:persp3d"
       inkscape:vp_x="0 : 526.18109 : 1"
       inkscape:vp_y="0 : 1000 : 0"
       inkscape:vp_z="744.09448 : 526.18109 : 1"
       inkscape:persp3d-origin="372.04724 : 350.78739 : 1"
       id="perspective10" />
    <inkscape:perspective
       sodipodi:type="inkscape:persp3d"
       inkscape:vp_x="0 : 420.94501 : 1"
       inkscape:vp_y="0 : 1000 : 0"
       inkscape:vp_z="595.27502 : 420.94501 : 1"
       inkscape:persp3d-origin="297.63751 : 280.63 : 1"
       id="perspective2490" />
    <radialGradient
       r="300"
       fy="579.93323"
       fx="858.04236"
       cy="579.93323"
       cx="858.04236"
       gradientTransform="matrix(1.21503,0,0,1.26667,-839.192,-490.489)"
       gradientUnits="userSpaceOnUse"
       id="radialGradient3236"
       xlink:href="#linearGradient2893"
       inkscape:collect="always" />
    <linearGradient
       id="linearGradient2955">
      <stop
         id="stop2965"
         offset="0"
         style="stop-color: white; stop-opacity: 0;" />
      <stop
         id="stop2959"
         offset="1"
         style="stop-color: black; stop-opacity: 0.645833;" />
    </linearGradient>
    <linearGradient
       id="linearGradient2893">
      <stop
         id="stop2895"
         offset="0"
         style="stop-color: rgb(255, 255, 255); stop-opacity: 0.313726;" />
      <stop
         style="stop-color: rgb(255, 255, 255); stop-opacity: 0.25098;"
         offset="0.19"
         id="stop2897" />
      <stop
         id="stop2901"
         offset="0.60000002"
         style="stop-color: rgb(107, 107, 107); stop-opacity: 0.12549;" />
      <stop
         id="stop2899"
         offset="1"
         style="stop-color: rgb(0, 0, 0); stop-opacity: 0.12549;" />
    </linearGradient>
    <inkscape:perspective
       id="perspective28"
       inkscape:persp3d-origin="301.5 : 254.33333 : 1"
       inkscape:vp_z="603 : 381.5 : 1"
       inkscape:vp_y="0 : 1000 : 0"
       inkscape:vp_x="0 : 381.5 : 1"
       sodipodi:type="inkscape:persp3d" />
    <radialGradient
       inkscape:collect="always"
       xlink:href="#linearGradient2893"
       id="radialGradient2540"
       gradientUnits="userSpaceOnUse"
       gradientTransform="matrix(1.21503,0,0,1.26667,-839.192,-490.489)"
       cx="858.04236"
       cy="579.93323"
       fx="858.04236"
       fy="579.93323"
       r="300" />
    <radialGradient
       inkscape:collect="always"
       xlink:href="#linearGradient2893"
       id="radialGradient2543"
       gradientUnits="userSpaceOnUse"
       gradientTransform="matrix(1.21503,0,0,1.26667,-1646.4063,-513.91253)"
       cx="858.04236"
       cy="579.93323"
       fx="858.04236"
       fy="579.93323"
       r="300" />
  </defs>
  <sodipodi:namedview
     id="base"
     pagecolor="#ffffff"
     bordercolor="#666666"
     borderopacity="1.0"
     inkscape:pageopacity="0.0"
     inkscape:pageshadow="2"
     inkscape:zoom="0.35"
     inkscape:cx="8.5714286"
     inkscape:cy="520"
     inkscape:document-units="px"
     inkscape:current-layer="layer1"
     showgrid="false"
     inkscape:window-width="1280"
     inkscape:window-height="750"
     inkscape:window-x="-8"
     inkscape:window-y="-8" />
  <metadata
     id="metadata7">
    <rdf:RDF>
      <cc:Work
         rdf:about="">
        <dc:format>image/svg+xml</dc:format>
        <dc:type
           rdf:resource="http://purl.org/dc/dcmitype/StillImage" />
      </cc:Work>
    </rdf:RDF>
  </metadata>
  <g
     inkscape:label="Ebene 1"
     inkscape:groupmode="layer"
     id="layer1"
     transform="translate(807.21429,-132.21328)">
    <g
       id="g2554"
       transform="matrix(0.7960199,0,0,0.7960199,-154.65565,160.85727)">
      <path
         d="M -805.71047,-21.921562 L -805.71047,436.94844 C -805.71047,603.25944 -671.39647,738.07944 -505.71047,738.07944 C -340.02247,738.07944 -205.71047,603.25944 -205.71047,436.94844 L -205.71047,-21.921562 L -805.71047,-21.921562 z"
         id="path2507"
         style="fill:#e20909;display:inline" />
      <path
         d="M -805.71047,-21.921562 L -805.71047,436.94844 C -805.71047,603.25944 -671.39647,738.07944 -505.71047,738.07944 L -505.71047,-21.920562 L -805.71047,-21.920562 L -805.71047,-21.921562 z"
         id="path2483"
         style="fill:#ffffff;display:inline" />
      <line
         y2="-21.921562"
         x2="-505.71347"
         y1="738.07648"
         x1="-505.71347"
         id="line2487"
         style="fill:none;stroke:#000000;stroke-width:3" />
      <path
         style="fill:#fcef3c"
         id="path2489"
         d="M -805.71047,103.41044 L -290.88247,647.10844 C -247.94147,602.88544 -218.43347,545.46744 -208.98247,481.47944 L -685.71047,-21.921562 L -805.71047,-21.921562 L -805.71047,103.41044 L -805.71047,103.41044 z" />
      <path
         style="fill:none;stroke:#000000;stroke-width:3"
         id="path2489_4_"
         d="M -208.98247,481.47944 L -685.71047,-21.921562" />
      <path
         style="fill:none;stroke:#000000;stroke-width:3"
         id="path2489_3_"
         d="M -805.71047,103.41044 L -805.71047,103.41044 L -290.88247,647.10844" />
      <circle
         style="fill:#e20909;stroke:#000000;stroke-width:3"
         sodipodi:ry="68.323997"
         sodipodi:rx="68.323997"
         sodipodi:cy="317.65799"
         sodipodi:cx="301.54001"
         cx="301.54001"
         cy="317.65799"
         r="68.323997"
         id="circle2479"
         transform="translate(-807.25147,-23.467562)" />
      <circle
         style="fill:#e20909;stroke:#000000;stroke-width:3"
         sodipodi:ry="68.323997"
         sodipodi:rx="68.323997"
         sodipodi:cy="159.142"
         sodipodi:cx="151.541"
         cx="151.541"
         cy="159.142"
         r="68.323997"
         id="circle2481"
         transform="translate(-807.25147,-23.467562)" />
      <circle
         style="fill:#e20909;stroke:#000000;stroke-width:3"
         sodipodi:ry="68.323997"
         sodipodi:rx="68.323997"
         sodipodi:cy="475.927"
         sodipodi:cx="451.54099"
         cx="451.54099"
         cy="475.927"
         r="68.323997"
         id="circle2483"
         transform="translate(-807.25147,-23.467562)" />
      <path
         style="fill:none;fill-opacity:1;stroke:#000000;stroke-width:3;stroke-miterlimit:4;stroke-dasharray:none;stroke-opacity:1"
         d="M -805.71429,-21.923532 L -805.71429,436.94441 C -805.71429,603.25501 -671.39975,738.07647 -505.71436,738.07647 C -340.02889,738.07647 -205.71429,603.25501 -205.71429,436.94441 L -205.71429,-21.923532 L -805.71429,-21.923532 z"
         id="path3239" />
    </g>
  </g>
</svg>

<?xml version="1.0" encoding="UTF-8"?>
<svg version="1.0" viewBox="0 0 500 627.36" xmlns="http://www.w3.org/2000/svg" xmlns:cc="http://creativecommons.org/ns#" xmlns:dc="http://purl.org/dc/elements/1.1/" xmlns:rdf="http://www.w3.org/1999/02/22-rdf-syntax-ns#" xmlns:xlink="http://www.w3.org/1999/xlink">
<metadata>
<rdf:RDF>
<cc:Work rdf:about="">
<dc:format>image/svg+xml</dc:format>
<dc:type rdf:resource="http://purl.org/dc/dcmitype/StillImage"/>
</cc:Work>
</rdf:RDF>
</metadata>
<g transform="translate(807.21 -132.21)">
<g transform="matrix(.79602 0 0 .79602 -154.66 160.86)">
<path d="m-805.71-21.922v458.87c0 166.31 134.31 301.13 300 301.13 165.69 0 300-134.82 300-301.13v-458.87h-600z" fill="#e20909"/>
<path d="m-805.71-21.922v458.87c0 166.31 134.31 301.13 300 301.13v-760h-300v-1e-3z" fill="#fff"/>
<line x1="-505.71" x2="-505.71" y1="738.08" y2="-21.922" fill="none" stroke="#000" stroke-width="3"/>
<path d="m-805.71 103.41 514.83 543.7c42.941-44.223 72.449-101.64 81.9-165.63l-476.73-503.4h-120v125.33z" fill="#fcef3c"/>
<path d="m-208.98 481.48-476.73-503.4" fill="none" stroke="#000" stroke-width="3"/>
<path d="m-805.71 103.41 514.83 543.7" fill="none" stroke="#000" stroke-width="3"/>
<circle transform="translate(-807.25 -23.468)" cx="301.54" cy="317.66" r="68.324" fill="#e20909" stroke="#000" stroke-width="3"/>
<circle transform="translate(-807.25 -23.468)" cx="151.54" cy="159.14" r="68.324" fill="#e20909" stroke="#000" stroke-width="3"/>
<circle transform="translate(-807.25 -23.468)" cx="451.54" cy="475.93" r="68.324" fill="#e20909" stroke="#000" stroke-width="3"/>
<path d="m-805.71-21.924v458.87c0 166.31 134.31 301.13 300 301.13 165.69 0 300-134.82 300-301.13v-458.87h-600z" fill="none" stroke="#000" stroke-width="3"/>
</g>
</g>
</svg>
